X: 35
T:Pike County Breakdown
M:C
L:1/8
C:Monroe, Jones
R:Reel
N:from Rafe Stefanini, Glory in the Big String,
CO-CD-2730
N:transcribed by Bruce Thomson
K:G
z7(3DEF)|:â€Gâ€G2G2B3B|c2d6|â€Dâ€BAGB
AGFD|â€Gâ€G3GG2(3ABc|d2d2d3d|
g3=fgfd2|â€Fâ€=f3eâ€Câ€dcB2|â€Dâ€d3dd4|â€Gâ€d2d2d2d2|g3=fgfd2|
â€œFâ€=f3eâ€Câ€dcB2|â€Dâ€d3dd2(3DEF|â€Gâ€G2G2B3B|c2d6|â€Dâ€BAGB
AGFD|â€Gâ€G3GG4:|

